!!!!SEGMENT: pl-cz--iii-267_goetz-gieczynski-cyryl--do-gory-swietej.krn
!!!cenid: 18xx:269
!!!COM: Goetz-Gieczyński, Cyryl
!!!COM-rismid: pe30020327
!!!CDT: 1793-1866
!!!CNT:
!!!OTL: Do Góry Świętej
!!!PDT:
!!!AGN: Sacred
!!!SMS-siglum: PL-CZ
!!!SMS-shelfmark: III-267
!!!SMS-shelfwork: W
!!!NIFC-rismid:
!!!URL-scan: http://repozytoriumplikow.nifc.pl/skany/pl-cz-nut--iii-267
!!!ONB-nifc:
**kern	**fba	**dynam	**kern	**dynam	**kern	**dynam	**kern	**dynam	**kern	**text	**dynam	**kern	**text	**dynam	**kern	**text	**kern	**dynam	**kern	**dynam	**kern	**dynam	**kern	**dynam
*part11	*part11	*part11	*part10	*part10	*part9	*part9	*part8	*part8	*part7	*part7	*part7	*part6	*part6	*part6	*part5	*part5	*part4	*part4	*part3	*part3	*part2	*part2	*part1	*part1
*staff11	*	*	*staff10	*	*staff9	*	*staff8	*	*staff7	*staff7	*	*staff6	*staff6	*	*staff5	*staff5	*staff4	*	*staff3	*	*staff2	*	*staff1	*
*Iorgan	*	*	*Iviola	*	*Ivioln	*	*Ivioln	*	*Iempty	*	*	*Ivox	*	*	*Ivox	*	*Iempty	*	*Iempty	*	*Iflt	*	*Iflt	*
*I"Organo.	*	*	*I"Alto Viola oblig.	*	*I"Violino Secundo.	*	*I"Violino Primo.	*	*I"Baſso.	*	*	*I"Alto. Canto 2do	*	*	*I"Canto.	*	*I"Cornu 2do. in G.	*	*I"Cornu Primo. in G.	*	*I"Flauto Secundo.	*	*I"Flauto Primo.	*
*I'org	*	*	*I'a-vla	*	*I'vl 2	*	*I'vl 1	*	*I'B	*	*	*I'A	*	*	*I'S	*	*I'cor 2 in G	*	*I'cor 1 in G	*	*I'fl 2	*	*I'fl 1	*
*clefF4	*	*	*clefC3	*	*clefG2	*	*clefG2	*	*clefF4	*	*	*clefC3	*	*	*clefC1	*	*clefG2	*	*clefG2	*	*clefG2	*	*clefG2	*
*	*	*	*	*	*	*	*	*	*	*	*	*	*	*	*	*	*ITrd3c5	*	*ITrd3c5	*	*	*	*	*
*k[f#]	*	*	*k[f#]	*	*k[f#]	*	*k[f#]	*	*k[f#]	*	*	*k[f#]	*	*	*k[f#]	*	*k[f#]	*	*k[f#]	*	*k[f#]	*	*k[f#]	*
*G:	*	*	*G:	*	*G:	*	*G:	*	*G:	*	*	*G:	*	*	*G:	*	*G:	*	*G:	*	*G:	*	*G:	*
*M2/2	*	*	*M2/2	*	*M2/2	*	*M2/2	*	*M2/2	*	*	*M2/2	*	*	*M2/2	*	*M2/2	*	*M2/2	*	*M2/2	*	*M2/2	*
*met(C)	*	*	*met(C)	*	*met(C)	*	*met(C)	*	*met(C)	*	*	*met(C)	*	*	*met(C)	*	*met(C)	*	*met(C)	*	*met(C)	*	*met(C)	*
=1	=1	=1	=1	=1	=1	=1	=1	=1	=1	=1	=1	=1	=1	=1	=1	=1	=1	=1	=1	=1	=1	=1	=1	=1
*	*	*	*tremolo	*	*tremolo	*	*	*	*	*	*	*	*	*	*	*	*	*	*	*	*	*	*	*
!	!	!	!	!	!	!	!	!	!	!	!	!	!	!	!	!	!	!	!	!	!	!	!LO:TX:t=P:problem:[W źródle znajdują się ponadto partia kotłów i trąbki clarino część allegro]	!
!LO:TX:a:i:t=Tutti	!	!	!	!	!	!	!	!	!LO:TX:a:t=4.	!	!	!LO:TX:a:t=4.	!	!	!LO:TX:a:t=4.	!	!	!	!	!	!	!	!LO:TX:a:Bi:t=adagio.	!
!LO:TX:a:B:i:t=adagio	!	!	!LO:TX:a:Bi:t=adagio.	!	!LO:TX:rj:a:Bi:t=adagio.	!	!LO:TX:a:Bi:t=adagio	!	!LO:TX:a:Bi:t=adagio	!	!	!LO:TX:a:Bi:t=adagio	!	!	!LO:TX:a:Bi:t=adagio	!	!LO:TX:a:Bi:t=adagio	!	!LO:TX:rj:a:B:i:t=adagio	!	!LO:TX:rj:a:i:t=adagio	!	!	!
!	!	!	!	!LO:DY:rj:b	!	!LO:DY:rj:b	!	!LO:DY:rj:b	!	!	!	!	!	!	!	!	!	!LO:DY:rj	!	!LO:DY:rj:b	!	!	!	!
8GG/L	.	.	16G/LL	f	16B/LL	f	8g\L	f	00r	.	.	00r	.	.	00r	.	4B/	f	4g\	f	4b\	.	8gg\L	.
.	.	.	16B/	.	16d/	.	.	.	.	.	.	.	.	.	.	.	.	.	.	.	.	.	.	.
8BB/J	.	.	16G/	.	16B/	.	16b\L	.	.	.	.	.	.	.	.	.	.	.	.	.	.	.	16bb\L	.
.	.	.	16B/	.	16d/	.	16a\JJ	.	.	.	.	.	.	.	.	.	.	.	.	.	.	.	16aa\JJ	.
8D\L	.	.	16G/	.	16B/	.	8g\L	.	.	.	.	.	.	.	.	.	4B/	.	4g\	.	8b\L	.	8gg\L	.
.	.	.	16B/	.	16d/	.	.	.	.	.	.	.	.	.	.	.	.	.	.	.	.	.	.	.
8E\J	.	.	16G/	.	16B/	.	8b\J	.	.	.	.	.	.	.	.	.	.	.	.	.	8gg\J	.	8bb\J	.
.	.	.	16B/JJ	.	16d/JJ	.	.	.	.	.	.	.	.	.	.	.	.	.	.	.	.	.	.	.
8B\L	.	.	16G/LL	.	16B/LL	.	8ee\L	.	.	.	.	.	.	.	.	.	4r	.	4r	.	4r	.	4r	.
.	.	.	16B/	.	16d/	.	.	.	.	.	.	.	.	.	.	.	.	.	.	.	.	.	.	.
8G\	.	.	16G/	.	16B/	.	8gg\	.	.	.	.	.	.	.	.	.	.	.	.	.	.	.	.	.
.	.	.	16B/	.	16d/	.	.	.	.	.	.	.	.	.	.	.	.	.	.	.	.	.	.	.
8D\	.	.	16G/	.	16B/	.	8bb\	.	.	.	.	.	.	.	.	.	4B/	.	4g\	.	4gg\	.	4bb\	.
.	.	.	16B/	.	16d/	.	.	.	.	.	.	.	.	.	.	.	.	.	.	.	.	.	.	.
8G\J	.	.	16G/	.	16B/	.	8gg\J	.	.	.	.	.	.	.	.	.	.	.	.	.	.	.	.	.
.	.	.	16B/JJ	.	16d/JJ	.	.	.	.	.	.	.	.	.	.	.	.	.	.	.	.	.	.	.
=2	=2	=2	=2	=2	=2	=2	=2	=2	=2	=2	=2	=2	=2	=2	=2	=2	=2	=2	=2	=2	=2	=2	=2	=2
*	*	*	*2\right	*	*	*	*	*	*	*	*	*	*	*	*	*	*	*	*	*	*	*	*	*
8D\L	.	.	16d\LL	.	16f#/LL	.	8ff#\L	.	.	.	.	.	.	.	.	.	4d/	.	4a\	.	4ff#\	.	4aa\	.
.	.	.	16f#\	.	16a/	.	.	.	.	.	.	.	.	.	.	.	.	.	.	.	.	.	.	.
8F#\	.	.	16d\	.	16f#/	.	16aa\L	.	.	.	.	.	.	.	.	.	.	.	.	.	.	.	.	.
.	.	.	16f#\	.	16a/	.	16gg\JJ	.	.	.	.	.	.	.	.	.	.	.	.	.	.	.	.	.
8A\	.	.	16d\	.	16f#/	.	8ff#\L	.	.	.	.	.	.	.	.	.	4d/	.	4a\	.	4ff#\	.	4ddd\	.
.	.	.	16f#\	.	16a/	.	.	.	.	.	.	.	.	.	.	.	.	.	.	.	.	.	.	.
8F#\J	.	.	16d\	.	16f#/	.	8ee\J	.	.	.	.	.	.	.	.	.	.	.	.	.	.	.	.	.
.	.	.	16f#\JJ	.	16a/JJ	.	.	.	.	.	.	.	.	.	.	.	.	.	.	.	.	.	.	.
8D\L	.	.	16d\LL	.	16f#/LL	.	16dd\LL	.	.	.	.	.	.	.	.	.	4r	.	4r	.	16dd\LL	.	16ddd\LL	.
.	.	.	16f#\	.	16a/	.	16cc#X\	.	.	.	.	.	.	.	.	.	.	.	.	.	16cc#X\	.	16ccc#X\	.
8A\	.	.	16d\	.	16f#/	.	16ee\	.	.	.	.	.	.	.	.	.	.	.	.	.	16ee\	.	16eee\	.
.	.	.	16f#\	.	16a/	.	16dd\JJ	.	.	.	.	.	.	.	.	.	.	.	.	.	16dd\JJ	.	16ddd\JJ	.
8F#\	.	.	16d\	.	16f#/	.	16ccn\LL	.	.	.	.	.	.	.	.	.	4d/	.	4a\	.	16ccn\LL	.	16cccn\LL	.
.	.	.	16f#\	.	16a/	.	16b\	.	.	.	.	.	.	.	.	.	.	.	.	.	16b\	.	16bb\	.
8F#\J	.	.	16d\	.	16f#/	.	16cc\	.	.	.	.	.	.	.	.	.	.	.	.	.	16cc\	.	16ccc\	.
.	.	.	16f#\JJ	.	16a/JJ	.	16a\JJ	.	.	.	.	.	.	.	.	.	.	.	.	.	16a\JJ	.	16aa\JJ	.
!	!	!	!	!	!	!	!LO:LB:g=original	!	!	!	!	!	!	!	!	!	!	!	!	!	!	!	!	!
=3	=3	=3	=3	=3	=3	=3	=3	=3	=3	=3	=3	=3	=3	=3	=3	=3	=3	=3	=3	=3	=3	=3	=3	=3
*	*	*	*	*	*2\right	*	*	*	*	*	*	*	*	*	*	*	*	*	*	*	*	*	*	*
4GG/	.	.	16B\LL	.	16g\LL	.	8g\L	.	.	.	.	.	.	.	.	.	4B/	.	4g\	.	4b\	.	4gg\	.
.	.	.	16d\	.	16b\	.	.	.	.	.	.	.	.	.	.	.	.	.	.	.	.	.	.	.
.	.	.	16B\	.	16g\	.	16b\L	.	.	.	.	.	.	.	.	.	.	.	.	.	.	.	.	.
.	.	.	16d\	.	16b\	.	16dd\JJ	.	.	.	.	.	.	.	.	.	.	.	.	.	.	.	.	.
4G\	.	.	16B\	.	16g\	.	8gg\L	.	.	.	.	.	.	.	.	.	4B/	.	4g\	.	4r	.	4r	.
.	.	.	16d\	.	16b\	.	.	.	.	.	.	.	.	.	.	.	.	.	.	.	.	.	.	.
.	.	.	16B\	.	16g\	.	8dd\J	.	.	.	.	.	.	.	.	.	.	.	.	.	.	.	.	.
.	.	.	16d\JJ	.	16b\JJ	.	.	.	.	.	.	.	.	.	.	.	.	.	.	.	.	.	.	.
4G\	.	.	16B\LL	.	16g\LL	.	16cc#X\LL	.	.	.	.	.	.	.	.	.	4r	.	4r	.	4gg\	.	4bb\	.
.	.	.	16d\	.	16b\	.	16dd\	.	.	.	.	.	.	.	.	.	.	.	.	.	.	.	.	.
.	.	.	16B\	.	16g\	.	16ee\	.	.	.	.	.	.	.	.	.	.	.	.	.	.	.	.	.
.	.	.	16d\	.	16b\	.	16dd\JJ	.	.	.	.	.	.	.	.	.	.	.	.	.	.	.	.	.
4G\	.	.	16B\	.	16g\	.	16ccn\LL	.	.	.	.	.	.	.	.	.	4B/	.	4g\	.	4b\	.	4gg\	.
.	.	.	16d\	.	16b\	.	16b\	.	.	.	.	.	.	.	.	.	.	.	.	.	.	.	.	.
.	.	.	16B\	.	16g\	.	16a\	.	.	.	.	.	.	.	.	.	.	.	.	.	.	.	.	.
.	.	.	16d\JJ	.	16b\JJ	.	16g\JJ	.	.	.	.	.	.	.	.	.	.	.	.	.	.	.	.	.
!	!	!	!	!	!	!	!	!	!	!	!	!	!	!	!	!	!	!	!	!	!	!	!LO:LB:g=original	!
=4	=4	=4	=4	=4	=4	=4	=4	=4	=4	=4	=4	=4	=4	=4	=4	=4	=4	=4	=4	=4	=4	=4	=4	=4
!	!	!	!	!	!	!	!LO:TX:t=P:problem:mixed beam	!	!	!	!	!	!	!	!	!	!	!	!	!	!	!	!	!
4D\	.	.	4d\	.	4a/ 4f#/	.	8f#/L	.	.	.	.	.	.	.	.	.	4D/	.	4d/	.	4ff#\	.	4ddd\	.
.	.	.	.	.	.	.	8dd\|	.	.	.	.	.	.	.	.	.	.	.	.	.	.	.	.	.
4r	.	.	4r	.	4r	.	8dd\|	.	.	.	.	.	.	.	.	.	4r	.	4r	.	4r	.	4r	.
.	.	.	.	.	.	.	8dd\J|	.	.	.	.	.	.	.	.	.	.	.	.	.	.	.	.	.
4D\	.	.	4d\	.	4a/ 4f#/	.	16cc#X\LL	.	.	.	.	.	.	.	.	.	4D/	.	4d/	.	4ff#\	.	4aa\	.
.	.	.	.	.	.	.	16dd\	.	.	.	.	.	.	.	.	.	.	.	.	.	.	.	.	.
.	.	.	.	.	.	.	16ee\	.	.	.	.	.	.	.	.	.	.	.	.	.	.	.	.	.
.	.	.	.	.	.	.	16dd\JJ	.	.	.	.	.	.	.	.	.	.	.	.	.	.	.	.	.
4D\	.	.	4d\	.	4a/ 4f#/	.	16ccn\LL	.	.	.	.	.	.	.	.	.	4D/	.	4d/	.	4aa\	.	4ccc\	.
.	.	.	.	.	.	.	16a\	.	.	.	.	.	.	.	.	.	.	.	.	.	.	.	.	.
.	.	.	.	.	.	.	16f#\	.	.	.	.	.	.	.	.	.	.	.	.	.	.	.	.	.
.	.	.	.	.	.	.	16d\JJ	.	.	.	.	.	.	.	.	.	.	.	.	.	.	.	.	.
*	*	*	*	*	*Xtremolo	*	*	*	*	*	*	*	*	*	*	*	*	*	*	*	*	*	*	*
!LO:LB:g=original	!	!	!LO:LB:g=original	!	!LO:LB:g=original	!	!	!	!	!	!	!	!	!	!	!	!	!	!	!	!LO:LB:g=original	!	!	!
=5	=5	=5	=5	=5	=5	=5	=5	=5	=5	=5	=5	=5	=5	=5	=5	=5	=5	=5	=5	=5	=5	=5	=5	=5
!LO:TX:a:i:t=Solo	!	!LO:DY:b	!	!LO:DY:rj	!	!LO:DY:rj:b	!	!LO:DY:rj:b	!	!	!	!	!	!	!	!	!LO:TX:a:t=2.	!	!LO:TX:a:t=2.	!	!LO:TX:rj:a:i:t=Solo	!	!LO:TX:rj:a:i:t=Solo	!
4GG/	.	p	4G/	p	8d/L	p	8g\L	p	4G\	Do	.	4g\	Do	.	8g\L	Do	0r	.	0r	.	8dd\L	.	8gg\L	.
.	.	.	.	.	8g/	.	8b\	.	.	.	.	.	.	.	8b\J	.	.	.	.	.	8gg\J	.	8bb\J	.
*	*	*	*	*	*	*	*	*	*	*	*	*2\right	*	*	*2\right	*	*	*	*	*	*2\right	*	*2\right	*
4r	.	.	4r	.	8g/	.	8b\	.	(4D\	go-	.	2g\	go-	.	2b\	-Go-	.	.	.	.	2gg\	.	2bb\	.
.	.	.	.	.	8g/J	.	8b\J	.	.	.	.	.	.	.	.	.	.	.	.	.	.	.	.	.
!	!	!	!	!	!	!	!LO:LB:g=original	!	!	!	!	!	!	!	!	!	!	!	!	!	!	!	!	!
4G\	.	.	4g\	.	8g\L	.	8b\L	.	4BB/)	.	.	.	.	.	.	.	.	.	.	.	.	.	.	.
.	.	.	.	.	8g\J	.	8b\	.	.	.	.	.	.	.	.	.	.	.	.	.	.	.	.	.
4r	.	.	4r	.	4b\	.	8dd\	.	4G\	-ry	.	4b\	-ry	.	4dd\	-ry	.	.	.	.	4bb\	.	4ddd\	.
.	.	.	.	.	.	.	8ee\J	.	.	.	.	.	.	.	.	.	.	.	.	.	.	.	.	.
=6	=6	=6	=6	=6	=6	=6	=6	=6	=6	=6	=6	=6	=6	=6	=6	=6	=6	=6	=6	=6	=6	=6	=6	=6
4D\	.	.	4d\	.	8b\L	.	8dd\L	.	(4D\	swię-	.	4.b\	swię-	.	4.dd\	swię-	.	.	.	.	4.bb\	.	4.ddd\	.
.	.	.	.	.	8b\	.	8dd\	.	.	.	.	.	.	.	.	.	.	.	.	.	.	.	.	.
4A\	.	.	4a\	.	8b\	.	8dd\	.	4F#\)	.	.	.	.	.	.	.	.	.	.	.	.	.	.	.
.	.	.	.	.	8a\J	.	8cc\J	.	.	.	.	8a\	.	.	8cc\	-tey	.	.	.	.	8aa\	.	8ccc\	.
4F#\	.	.	4f#\	.	4a\	.	4cc\	.	4D\	-tey	.	4a\	-tey	.	4cc\	.	.	.	.	.	4aa\	.	16ccc\LL	.
.	.	.	.	.	.	.	.	.	.	.	.	.	.	.	.	.	.	.	.	.	.	.	16bb\	.
.	.	.	.	.	.	.	.	.	.	.	.	.	.	.	.	.	.	.	.	.	.	.	16aa\	.
.	.	.	.	.	.	.	.	.	.	.	.	.	.	.	.	.	.	.	.	.	.	.	16gg\JJ	.
4D\	.	.	4d\	.	4r	.	4r	.	4r	.	.	4r	.	.	4r	.	.	.	.	.	4r	.	16ff#\LL	.
.	.	.	.	.	.	.	.	.	.	.	.	.	.	.	.	.	.	.	.	.	.	.	16gg\	.
.	.	.	.	.	.	.	.	.	.	.	.	.	.	.	.	.	.	.	.	.	.	.	16aa\	.
.	.	.	.	.	.	.	.	.	.	.	.	.	.	.	.	.	.	.	.	.	.	.	16ff#\JJ	.
!	!	!	!	!	!	!	!	!	!LO:LB:g=original	!	!	!LO:LB:g=original	!	!	!	!	!	!	!	!	!	!	!	!
=7	=7	=7	=7	=7	=7	=7	=7	=7	=7	=7	=7	=7	=7	=7	=7	=7	=7	=7	=7	=7	=7	=7	=7	=7
!	!	!	!	!	!	!	!	!	!	!	!	!	!	!	!	!	!	!LO:DY:rj	!	!LO:DY:rj:a	!	!	!	!
4GG/	.	.	4G/	.	8r	.	8r	.	4D\	spiesz-	.	4g\	spiesz-	.	4b\	spiesz-	8B/	p	8g\	p	4gg\	.	4bb\	.
.	.	.	.	.	8g/L	.	8b\	.	.	.	.	.	.	.	.	.	4r	.	4r	.	.	.	.	.
4r	.	.	4r	.	8r	.	8r	.	4B\	.	.	4d\	.	.	4g\	.	.	.	.	.	4dd\	.	4gg\	.
.	.	.	.	.	8B/J	.	8g/	.	.	.	.	.	.	.	.	.	8d/	.	8a\	.	.	.	.	.
4r	.	.	4r	.	8r	.	8r	.	4c\	-ne	.	4d\	-ne	.	4f#/	-ne	4r	.	4r	.	4cc\	.	4ff#\	.
.	.	.	.	.	8A/L	.	8f#/	.	.	.	.	.	.	.	.	.	.	.	.	.	.	.	.	.
4GG/	.	.	4g\	.	8B/	.	8g\L	.	8B\L	czyn-	.	8d\L	czyn-	.	8g\L	czyn-	8B/	.	8g\	.	8b\L	.	8gg\L	.
.	.	.	.	.	8g/J	.	8b\J	.	8G\J	-my	.	8g\J	-my	.	8b\J	-my	8r	.	8r	.	8gg\J	.	8bb\J	.
!	!	!	!	!	!	!	!	!	!	!	!	!	!	!	!	!	!	!	!LO:LB:g=original	!	!	!	!	!
=8	=8	=8	=8	=8	=8	=8	=8	=8	=8	=8	=8	=8	=8	=8	=8	=8	=8	=8	=8	=8	=8	=8	=8	=8
*	*	*	*tremolo	*	*tremolo	*	*	*	*2\right	*	*	*	*	*	*	*	*	*	*	*	*	*	*	*
4D\	4_	.	8d\L	.	8g\L	.	16dd\LL	.	2D\	Kro-	.	2g\	Kro-	.	2b\	Kro-	8B/	.	8g\	.	2gg\	.	2bb\	.
.	.	.	.	.	.	.	16gg\	.	.	.	.	.	.	.	.	.	.	.	.	.	.	.	.	.
.	.	.	8d\	.	8b\	.	16ff#\	.	.	.	.	.	.	.	.	.	8r	.	8r	.	.	.	.	.
.	.	.	.	.	.	.	16gg\JJ	.	.	.	.	.	.	.	.	.	.	.	.	.	.	.	.	.
4D\	.	.	8d\	.	8g\	.	16bb\LL	.	.	.	.	.	.	.	.	.	8B/	.	8g\	.	.	.	.	.
.	.	.	.	.	.	.	16gg\	.	.	.	.	.	.	.	.	.	.	.	.	.	.	.	.	.
.	.	.	8d\J	.	8b\J	.	16ddd\	.	.	.	.	.	.	.	.	.	8r	.	8r	.	.	.	.	.
.	.	.	.	.	.	.	16bb\JJ	.	.	.	.	.	.	.	.	.	.	.	.	.	.	.	.	.
!	!	!	!	!	!	!	!	!	!	!	!	!	!	!	!	!	!LO:LB:g=original	!	!	!	!	!	!	!
*	*	*	*Xtremolo	*	*Xtremolo	*	*	*	*	*	*	*	*	*	*	*	*	*	*	*	*	*	*	*
4D\	3	.	4d\	.	4a/ 4f#/	.	4aa\	.	4D\	-ki,	.	4f#\	-ki,	.	4a\	-ki	8d/	.	8a\	.	8ff#\L	.	8aa\L	.
.	.	.	.	.	.	.	.	.	.	.	.	.	.	.	.	.	8r	.	8r	.	8gg\	.	8bb\	.
4r	.	.	4d\	.	4a/	.	4cc\	.	4r	.	.	4r	.	.	4r	.	4r	.	4r	.	8aa\	.	8ccc\	.
.	.	.	.	.	.	.	.	.	.	.	.	.	.	.	.	.	.	.	.	.	8ff#\J	.	8aa\J	.
!	!	!	!	!	!	!	!LO:LB:g=original	!	!	!	!	!	!	!	!LO:LB:g=original	!	!	!	!	!	!	!	!LO:LB:g=original	!
=9	=9	=9	=9	=9	=9	=9	=9	=9	=9	=9	=9	=9	=9	=9	=9	=9	=9	=9	=9	=9	=9	=9	=9	=9
!LO:TX:t=P:problem:mixed beam	!	!	!	!	!	!	!	!	!	!	!	!	!	!	!	!	!	!	!	!	!	!	!	!
8GG/L	.	.	8g\L	.	8r	.	8r	.	(4G\	nio-	.	2g\	nio-	.	2b\	niosąc	4G/	.	4g\	.	4gg\	.	4bb\	.
8r	.	.	8r	.	8g\L	.	8b\L	.	.	.	.	.	.	.	.	.	.	.	.	.	.	.	.	.
8G\J	.	.	8g\J	.	8r	.	8r	.	4D\)	.	.	.	.	.	.	.	4r	.	4r	.	4r	.	4r	.
8r	.	.	8r	.	8b\J	.	8dd\J	.	.	.	.	.	.	.	.	.	.	.	.	.	.	.	.	.
8G\L	.	.	8g\L	.	8r	.	8r	.	4BB/	-sąc	.	4g\	-sąc	.	4b\	.	2r	.	2r	.	4r	.	4r	.
8r	.	.	8r	.	8b\L	.	8gg\L	.	.	.	.	.	.	.	.	.	.	.	.	.	.	.	.	.
8G\J	.	.	8g\J	.	8r	.	8r	.	4G\	Ci	.	4g\	Ci	.	4dd\	Ci	.	.	.	.	4gg\	.	4bb\	.
8r	.	.	8r	.	8b\J	.	8dd\J	.	.	.	.	.	.	.	.	.	.	.	.	.	.	.	.	.
!	!	!	!	!	!LO:LB:g=original	!	!	!	!	!	!	!	!	!	!	!	!	!	!	!	!LO:LB:g=original	!	!	!
=10	=10	=10	=10	=10	=10	=10	=10	=10	=10	=10	=10	=10	=10	=10	=10	=10	=10	=10	=10	=10	=10	=10	=10	=10
!	!	!	!	!	!	!	!	!	!	!	!	!	!	!	!	!	!LO:TX:a:t=8.	!	!	!	!	!	!	!
8A\L	#	.	8a\L	.	8r	.	8r	.	(4A\	ser-	.	2g\	ser-	.	2cc#X\	ser-	00r	.	00r	.	4aa\	.	4ccc#X\	.
8r	.	.	8r	.	8a\	.	8cc#X\L	.	.	.	.	.	.	.	.	.	.	.	.	.	.	.	.	.
8E\J	.	.	8e\J	.	8r	.	8r	.	4G\)	.	.	.	.	.	.	.	.	.	.	.	4gg\	.	4ccc#\	.
8r	.	.	8r	.	8cc#X\	.	8ee\J	.	.	.	.	.	.	.	.	.	.	.	.	.	.	.	.	.
8C#X/	.	.	8c#X\	.	8r	.	8r	.	(4E\	-ca	.	(4g\	-ca	.	(4cc#\	-ca	.	.	.	.	4ee\	.	4ccc#\	.
8r	.	.	8r	.	8ee\	.	8gg\L	.	.	.	.	.	.	.	.	.	.	.	.	.	.	.	.	.
!	!	!	!LO:LB:g=original	!	!	!	!	!	!	!	!	!	!	!	!	!	!	!	!	!	!	!	!	!
8D\	3	.	8d\	.	8r	.	8r	.	4D\)	.	.	4f#\)	.	.	4dd\)	.	.	.	.	.	4ff#\	.	4ddd\	.
8r	.	.	8r	.	8dd\	.	8ee\J	.	.	.	.	.	.	.	.	.	.	.	.	.	.	.	.	.
!LO:LB:g=original	!	!	!	!	!	!	!	!	!LO:LB:g=original	!	!	!LO:LB:g=original	!	!	!	!	!	!	!	!	!	!	!	!
=11	=11	=11	=11	=11	=11	=11	=11	=11	=11	=11	=11	=11	=11	=11	=11	=11	=11	=11	=11	=11	=11	=11	=11	=11
4GG/	.	.	4g\	.	4g/	.	4ee\	.	4D\	-w po-	.	4g\	-w po-	.	4ee\	-w po-	.	.	.	.	4gg\	.	4eee\	.
4r	.	.	4r	.	4r	.	4r	.	4D\	-ko-	.	4f#\	-ko-	.	4dd\	-ko-	.	.	.	.	4ff#\	.	4ddd\	.
4r	.	.	4r	.	4r	.	4r	.	4D\	-rze	.	4g\	-rze	.	4ee\	-rze	.	.	.	.	4gg\	.	4eee\	.
4AA/	#	.	4a\	.	8b/L	.	8ff#\L	.	4C#X/	głę-	.	8a\L	głę-	.	8ff#\L	głę-	.	.	.	.	4r	.	4r	.
.	.	.	.	.	8g/J	.	8ee\J	.	.	.	.	8g\J	.	.	8ee\J	.	.	.	.	.	.	.	.	.
=12	=12	=12	=12	=12	=12	=12	=12	=12	=12	=12	=12	=12	=12	=12	=12	=12	=12	=12	=12	=12	=12	=12	=12	=12
4C#X/	_	.	4e\	.	8e/L	.	16cc#X\LL	.	(4D\	-bo-	.	2g\	-bo-	.	2ee\	-bo-	.	.	.	.	4ee\	.	4ccc\	.
.	.	.	.	.	.	.	16dd\	.	.	.	.	.	.	.	.	.	.	.	.	.	.	.	.	.
.	.	.	.	.	8a/	.	16ee\	.	.	.	.	.	.	.	.	.	.	.	.	.	.	.	.	.
.	x	.	.	.	.	.	16ff#\JJ	.	.	.	.	.	.	.	.	.	.	.	.	.	.	.	.	.
4E/	.	.	4c\	.	8g/	.	16gg\LL	.	4A\)	.	.	.	.	.	.	.	.	.	.	.	4ee\	.	4ccc\	.
.	.	.	.	.	.	.	16aa\	.	.	.	.	.	.	.	.	.	.	.	.	.	.	.	.	.
.	.	.	.	.	8a/J	.	16bb\	.	.	.	.	.	.	.	.	.	.	.	.	.	.	.	.	.
.	.	.	.	.	.	.	16ccc\JJ	.	.	.	.	.	.	.	.	.	.	.	.	.	.	.	.	.
!	!	!	!	!	!	!	!LO:LB:g=original	!	!	!	!	!	!	!	!	!	!	!	!	!	!	!	!	!
*	*	*	*tremolo	*	*	*	*	*	*	*	*	*	*	*	*	*	*	*	*	*	*	*	*	*
4D\	3	.	8d\L	.	16f#/LL	.	8ddd\L	.	4D\	-kiey	.	4f#\	-kiey	.	4dd\	-kiey	.	.	.	.	4ff#\	.	4ddd\	.
.	.	.	.	.	16g/	.	.	.	.	.	.	.	.	.	.	.	.	.	.	.	.	.	.	.
.	.	.	8d\	.	16a/	.	8aa\	.	.	.	.	.	.	.	.	.	.	.	.	.	.	.	.	.
.	.	.	.	.	16b/JJ	.	.	.	.	.	.	.	.	.	.	.	.	.	.	.	.	.	.	.
4D\	.	.	8d\	.	16cc#X\LL	.	8ff#\	.	4r	.	.	4r	.	.	4r	.	.	.	.	.	4r	.	4r	.
.	.	.	.	.	16dd\	.	.	.	.	.	.	.	.	.	.	.	.	.	.	.	.	.	.	.
.	.	.	8d\J	.	16ee\	.	8dd\J	.	.	.	.	.	.	.	.	.	.	.	.	.	.	.	.	.
.	.	.	.	.	16ff#\JJ	.	.	.	.	.	.	.	.	.	.	.	.	.	.	.	.	.	.	.
*	*	*	*Xtremolo	*	*	*	*	*	*	*	*	*	*	*	*	*	*	*	*	*	*	*	*	*
!	!	!	!	!	!	!	!	!	!	!	!	!	!	!	!LO:LB:g=original	!	!	!	!	!	!	!	!	!
=13	=13	=13	=13	=13	=13	=13	=13	=13	=13	=13	=13	=13	=13	=13	=13	=13	=13	=13	=13	=13	=13	=13	=13	=13
!	!	!	!	!LO:DY:rj:a	!	!LO:DY:rj:b	!LO:TX:rj:a:i:t=solo	!	!LO:TX:a:t=5.	!	!	!LO:TX:a:t=5.	!	!	!LO:TX:a:t=5.	!	!	!	!	!	!LO:TX:a:t=5.	!	!LO:TX:a:t=5.	!
4D\	.	.	8r	p	8r	p	4ccn\	.	00r	.	.	00r	.	.	00r	.	.	.	.	.	00r	.	00r	.
.	.	.	8a\L	.	8ccn\L 8d\	.	.	.	.	.	.	.	.	.	.	.	.	.	.	.	.	.	.	.
4r	.	.	8a\	.	8cc\ 8d\	.	4.aa\	.	.	.	.	.	.	.	.	.	.	.	.	.	.	.	.	.
.	.	.	8a\J	.	8cc\J 8d\	.	.	.	.	.	.	.	.	.	.	.	.	.	.	.	.	.	.	.
4D\	.	.	8r	.	8r	.	.	.	.	.	.	.	.	.	.	.	.	.	.	.	.	.	.	.
.	.	.	8f#\L	.	8a\L 8d\	.	8ff#\L	.	.	.	.	.	.	.	.	.	.	.	.	.	.	.	.	.
4r	.	.	8f#\	.	8a\ 8d\	.	8dd\	.	.	.	.	.	.	.	.	.	.	.	.	.	.	.	.	.
.	.	.	8f#\J	.	8a\J 8d\	.	8cc\J	.	.	.	.	.	.	.	.	.	.	.	.	.	.	.	.	.
!	!	!	!	!	!LO:LB:g=original	!	!	!	!	!	!	!	!	!	!	!	!	!	!	!	!	!	!	!
=14	=14	=14	=14	=14	=14	=14	=14	=14	=14	=14	=14	=14	=14	=14	=14	=14	=14	=14	=14	=14	=14	=14	=14	=14
4GG/	.	.	8r	.	8r	.	4b\	.	.	.	.	.	.	.	.	.	00r	.	00r	.	.	.	.	.
.	.	.	8g\L	.	8b\L 8d\	.	.	.	.	.	.	.	.	.	.	.	.	.	.	.	.	.	.	.
4r	.	.	8g\	.	8b\ 8d\	.	4.ddd\	.	.	.	.	.	.	.	.	.	.	.	.	.	.	.	.	.
.	.	.	8g\J	.	8b\J 8d\	.	.	.	.	.	.	.	.	.	.	.	.	.	.	.	.	.	.	.
4G\	.	.	8r	.	8r	.	.	.	.	.	.	.	.	.	.	.	.	.	.	.	.	.	.	.
.	.	.	8g\L	.	8b\L 8d\	.	8bb\L	.	.	.	.	.	.	.	.	.	.	.	.	.	.	.	.	.
4r	.	.	8g\	.	8b\ 8d\	.	8gg\	.	.	.	.	.	.	.	.	.	.	.	.	.	.	.	.	.
.	.	.	8g\J	.	8b\J 8d\	.	8dd\J	.	.	.	.	.	.	.	.	.	.	.	.	.	.	.	.	.
=15	=15	=15	=15	=15	=15	=15	=15	=15	=15	=15	=15	=15	=15	=15	=15	=15	=15	=15	=15	=15	=15	=15	=15	=15
4D\	.	.	8r	.	8r	.	4cc\	.	.	.	.	.	.	.	.	.	.	.	.	.	.	.	.	.
.	.	.	8a\L	.	8cc\L 8d\	.	.	.	.	.	.	.	.	.	.	.	.	.	.	.	.	.	.	.
4r	.	.	8a\	.	8cc\ 8d\	.	4.aa\	.	.	.	.	.	.	.	.	.	.	.	.	.	.	.	.	.
.	.	.	8a\J	.	8cc\J 8d\	.	.	.	.	.	.	.	.	.	.	.	.	.	.	.	.	.	.	.
!	!	!	!LO:LB:g=original	!	!	!	!	!	!	!	!	!	!	!	!	!	!	!	!	!	!	!	!	!
4D\	.	.	8r	.	8r	.	.	.	.	.	.	.	.	.	.	.	.	.	.	.	.	.	.	.
.	.	.	8f#\L	.	8a\L 8d\	.	8ff#\L	.	.	.	.	.	.	.	.	.	.	.	.	.	.	.	.	.
4r	.	.	8f#\	.	8a\ 8d\	.	8dd\	.	.	.	.	.	.	.	.	.	.	.	.	.	.	.	.	.
.	.	.	8f#\J	.	8a\J 8d\	.	8cc\J	.	.	.	.	.	.	.	.	.	.	.	.	.	.	.	.	.
=16	=16	=16	=16	=16	=16	=16	=16	=16	=16	=16	=16	=16	=16	=16	=16	=16	=16	=16	=16	=16	=16	=16	=16	=16
4GG/	.	.	8r	.	8r	.	4b\	.	.	.	.	.	.	.	.	.	.	.	.	.	.	.	.	.
.	.	.	8g\L	.	8b\L 8d\	.	.	.	.	.	.	.	.	.	.	.	.	.	.	.	.	.	.	.
4r	.	.	8g\	.	8b\ 8d\	.	4.ddd\	.	.	.	.	.	.	.	.	.	.	.	.	.	.	.	.	.
.	.	.	8g\J	.	8b\J 8d\	.	.	.	.	.	.	.	.	.	.	.	.	.	.	.	.	.	.	.
4G\	.	.	8r	.	8r	.	.	.	.	.	.	.	.	.	.	.	.	.	.	.	.	.	.	.
.	.	.	8g\L	.	8b\L 8d\	.	8bb\L	.	.	.	.	.	.	.	.	.	.	.	.	.	.	.	.	.
4r	.	.	8g\	.	8b\ 8d\	.	8gg\	.	.	.	.	.	.	.	.	.	.	.	.	.	.	.	.	.
.	.	.	8g\J	.	8b\J 8d\	.	8dd\J	.	.	.	.	.	.	.	.	.	.	.	.	.	.	.	.	.
!	!	!	!	!	!	!	!LO:LB:g=original	!	!	!	!	!	!	!	!	!	!	!	!	!	!	!	!	!
=17	=17	=17	=17	=17	=17	=17	=17	=17	=17	=17	=17	=17	=17	=17	=17	=17	=17	=17	=17	=17	=17	=17	=17	=17
!LO:TX:a:t=1.	!	!	!	!	!	!	!	!	!	!	!	!	!	!	!	!	!	!	!	!	!	!	!	!
1r	.	.	8B/L	.	8cc\ 8d\	.	16ff#\LL	.	1r	.	.	1r	.	.	1r	.	.	.	.	.	1r	.	1r	.
.	.	.	.	.	.	.	16dd\J	.	.	.	.	.	.	.	.	.	.	.	.	.	.	.	.	.
.	.	.	8r	.	8r	.	8ddT\J	.	.	.	.	.	.	.	.	.	.	.	.	.	.	.	.	.
.	.	.	8A/J	.	8b\ 8d\	.	16gg\LL	.	.	.	.	.	.	.	.	.	.	.	.	.	.	.	.	.
.	.	.	.	.	.	.	16dd\J	.	.	.	.	.	.	.	.	.	.	.	.	.	.	.	.	.
.	.	.	8r	.	8r	.	8ddT\J	.	.	.	.	.	.	.	.	.	.	.	.	.	.	.	.	.
.	.	.	8G/	.	8a\ 8d\	.	16aa\LL	.	.	.	.	.	.	.	.	.	.	.	.	.	.	.	.	.
.	.	.	.	.	.	.	16dd\J	.	.	.	.	.	.	.	.	.	.	.	.	.	.	.	.	.
.	.	.	8r	.	8r	.	8ddT\J	.	.	.	.	.	.	.	.	.	.	.	.	.	.	.	.	.
.	.	.	8A/	.	8b\ 8d\	.	16bb\LL	.	.	.	.	.	.	.	.	.	.	.	.	.	.	.	.	.
.	.	.	.	.	.	.	16dd\J	.	.	.	.	.	.	.	.	.	.	.	.	.	.	.	.	.
.	.	.	8r	.	8r	.	8ddT\J	.	.	.	.	.	.	.	.	.	.	p	.	.	.	.	.	.
!LO:LB:g=original	!	!	!	!	!	!	!	!	!	!	!	!	!	!	!	!	!	!	!	!	!	!	!	!
=18	=18	=18	=18	=18	=18	=18	=18	=18	=18	=18	=18	=18	=18	=18	=18	=18	=18	=18	=18	=18	=18	=18	=18	=18
4D\	.	.	4f#\	.	4a\ 4d\	.	4.ccc\	.	2r	.	.	2r	.	.	2r	.	4d/	.	4a\	.	2r	.	2r	.
4D\	.	.	4f#\	.	4a\ 4d\	.	.	.	.	.	.	.	.	.	.	.	4d/	.	4a\	.	.	.	.	.
.	.	.	.	.	.	.	8bb\	.	.	.	.	.	.	.	.	.	.	.	.	.	.	.	.	.
!	!	!	!	!	!LO:LB:g=original	!	!	!	!	!	!	!	!	!	!	!	!	!	!	!	!	!	!	!
2r	.	.	4r	.	4r	.	16aa\LL	.	4r	.	.	4r	.	.	4r	.	2r	.	2r	.	4r	.	4r	.
.	.	.	.	.	.	.	16gg\	.	.	.	.	.	.	.	.	.	.	.	.	.	.	.	.	.
.	.	.	.	.	.	.	16ff#\	.	.	.	.	.	.	.	.	.	.	.	.	.	.	.	.	.
.	.	.	.	.	.	.	16ee\J	.	.	.	.	.	.	.	.	.	.	.	.	.	.	.	.	.
.	.	.	8f#\	.	8a\	.	8dd\J	.	8r	.	.	8r	.	.	8r	.	.	.	.	.	8r	.	8r	.
.	.	.	8r	.	16r	.	16r	.	8D\	ah!	.	8a\	ah!	.	8cc\	ah!	.	.	.	.	8aa\	.	8cccn\	.
.	.	.	.	.	16a\	.	16cc\	.	.	.	.	.	.	.	.	.	.	.	.	.	.	.	.	.
!	!	!	!	!	!	!	!	!LO:DY:b	!	!	!	!	!	!	!	!	!	!	!	!	!	!	!	!
.	.	.	.	.	.	.	.	p	.	.	.	.	.	.	.	.	.	.	.	.	.	.	.	.
!	!	!	!	!	!	!	!	!	!	!	!	!LO:LB:g=original	!	!	!	!	!	!	!	!	!	!	!	!
=19	=19	=19	=19	=19	=19	=19	=19	=19	=19	=19	=19	=19	=19	=19	=19	=19	=19	=19	=19	=19	=19	=19	=19	=19
!	!	!	!	!	!	!LO:DY:rj:b	!	!	!	!	!	!	!	!	!	!	!	!	!	!	!	!	!	!
4D\	7	.	4d\	.	8f#/L	p	8a\L	.	4.D\	day	.	4.a\	day	.	4.cc\	day	8d/	.	8a\	.	4.aa\	.	4.ccc\	.
.	.	.	.	.	8a/	.	8cc\	.	.	.	.	.	.	.	.	.	8r	.	8r	.	.	.	.	.
4r	.	.	4g\	.	8f#/	.	8a\	.	.	.	.	.	.	.	.	.	4r	.	4r	.	.	.	.	.
.	.	.	.	.	8g/J	.	8b\J	.	8D\	nam	.	8g\	nam	.	8b\	nam	.	.	.	.	8gg\	.	8bb\	.
!	!	!	!	!	!	!	!	!	!LO:LB:g=original	!	!	!	!	!	!	!	!	!	!	!	!LO:LB:g=original	!	!LO:LB:g=original	!
4D\	3	.	4d\	.	8g/L	.	8b\L	.	4D\	wi-	.	8g\L	wi-	.	8b\L	wi-	2r	.	2r	.	8gg\L	.	8bb\L	.
.	.	.	.	.	8f#/J	.	8a\J	.	.	.	.	8f#\J	.	.	8a\J	.	.	.	.	.	8ff#\J	.	8aa\J	.
4D\	.	.	4d\	.	4f#/	.	4a\	.	4D\	-dziec	.	4f#\	-dziec	.	4a\	-dziec	.	.	.	.	4ff#\	.	4aa\	.
!	!	!	!LO:LB:g=original	!	!	!	!LO:LB:g=original	!	!	!	!	!	!	!	!	!	!	!	!	!	!	!	!	!
=20	=20	=20	=20	=20	=20	=20	=20	=20	=20	=20	=20	=20	=20	=20	=20	=20	=20	=20	=20	=20	=20	=20	=20	=20
!	!	!	!	!	!	!	!	!	!	!	!	!	!	!	!	!	!LO:TX:a:t=1.	!	!LO:TX:a:t=1.	!	!	!	!	!
4D\	.	.	4d\	.	8r	.	8r	.	4D\	Twarz	.	4f#\	Twarz	.	4a\	Twarz	1r	.	1r	.	4ff#\	.	4aa\	.
.	.	.	.	.	8f#/	.	8a\L	.	.	.	.	.	.	.	.	.	.	.	.	.	.	.	.	.
4r	.	.	4r	.	8r	.	8r	.	4D\	.	.	4cc\	twą	.	4ee\	twą	.	.	.	.	4r	.	4r	.
.	.	.	.	.	8cc\	.	8ee\J	.	.	.	.	.	.	.	.	.	.	.	.	.	.	.	.	.
2r	.	.	2r	.	8r	.	8r	.	4E\	twą	.	4b\	swię-	.	4dd\	swię-	.	.	.	.	4r	.	4r	.
.	.	.	.	.	8b\	.	8dd\L	.	.	.	.	.	.	.	.	.	.	.	.	.	.	.	.	.
.	.	.	.	.	8r	.	8r	.	4F#\	świętą	.	4a\	-tą	.	4cc\	-tą	.	.	.	.	4aa\	.	4ccc\	.
.	.	.	.	.	8a\	.	8cc\J	.	.	.	.	.	.	.	.	.	.	.	.	.	.	.	.	.
=21	=21	=21	=21	=21	=21	=21	=21	=21	=21	=21	=21	=21	=21	=21	=21	=21	=21	=21	=21	=21	=21	=21	=21	=21
!	!	!	!	!	!	!LO:DY:rj:b	!	!LO:DY:rj:b	!	!	!	!	!	!	!	!	!	!LO:DY:rj	!	!LO:DY:rj:b	!	!	!	!
8r	.	.	8r	.	8G/L	f	8g\L	f	(4.F#\	na	.	(4.a\	na	.	(4.cc\	na	4G/	f	4g\	f	4.aa\	.	4.ccc\	.
8D\L	n7	.	8d\L	.	16A/L	.	16a\L	.	.	.	.	.	.	.	.	.	.	.	.	.	.	.	.	.
.	.	.	.	.	16B/JJ	.	16b\JJ	.	.	.	.	.	.	.	.	.	.	.	.	.	.	.	.	.
8E\	_	.	8e\	.	16c/LL	.	16cc\LL	.	.	.	.	.	.	.	.	.	4G/	.	4g\	.	.	.	.	.
.	.	.	.	.	16d/	.	16dd\	.	.	.	.	.	.	.	.	.	.	.	.	.	.	.	.	.
8F#\J	.	.	8f#\J	.	16e/	.	16ee\	.	8G\)	.	.	8g\)	.	.	8b\)	.	.	.	.	.	8gg\	.	8bb\	.
.	x	.	.	.	16f#/JJ	.	16ff#\JJ	.	.	.	.	.	.	.	.	.	.	.	.	.	.	.	.	.
4G\	.	.	4g\	.	16g/LL	.	16gg\LL	.	4G\	-tym	.	4g\	tym	.	4b\	tym	4G/	.	4g\	.	4gg\	.	4bb\	.
.	.	.	.	.	16f#/	.	16ff#\	.	.	.	.	.	.	.	.	.	.	.	.	.	.	.	.	.
.	.	.	.	.	16e/	.	16ee\	.	.	.	.	.	.	.	.	.	.	.	.	.	.	.	.	.
.	.	.	.	.	16d/JJ	.	16dd\JJ	.	.	.	.	.	.	.	.	.	.	.	.	.	.	.	.	.
4r	.	.	4r	.	16c/LL	.	16cc\LL	.	4r	.	.	4r	.	.	4r	.	4G/	.	4g\	.	4r	.	4r	.
.	.	.	.	.	16B/	.	16b\	.	.	.	.	.	.	.	.	.	.	.	.	.	.	.	.	.
.	.	.	.	.	16A/	.	16a\	.	.	.	.	.	.	.	.	.	.	.	.	.	.	.	.	.
.	.	.	.	.	16G/JJ	.	16g\JJ	.	.	.	.	.	.	.	.	.	.	.	.	.	.	.	.	.
!	!	!	!	!	!LO:LB:g=original	!	!	!	!	!	!	!LO:LB:g=original	!	!	!LO:LB:g=original	!	!	!	!	!	!	!	!	!
=22	=22	=22	=22	=22	=22	=22	=22	=22	=22	=22	=22	=22	=22	=22	=22	=22	=22	=22	=22	=22	=22	=22	=22	=22
!	!	!	!	!	!	!LO:DY:rj:b	!	!LO:DY:rj:b	!	!	!	!	!	!	!	!	!LO:TX:a:t=2.	!	!LO:TX:a:t=2	!	!	!	!	!
4BB/	6 3	.	4B/	.	4r	p	4r	p	2D\	na	.	2b\	na	.	(4gg\	na	0r	.	0r	.	4b\	.	(4gg\	.
4r	.	.	4r	.	4g/	.	4b\	.	.	.	.	.	.	.	4dd\)	.	.	.	.	.	4r	.	4dd\)	.
4BB/	_ _	.	4B/	.	4r	.	4r	.	[4B\	tym	.	(4b\	tym	.	(4dd\	tym	.	.	.	.	4b\	.	4dd\	.
4BB/	x	.	4B/	.	4g/	.	4b\	.	4B\]	.	.	4g\)	.	.	4b\)	.	.	.	.	.	4g/	.	4b\	.
!	!	!	!	!	!	!	!LO:LB:g=original	!	!LO:LB:g=original	!	!	!	!	!	!	!	!	!	!	!	!	!	!	!
=23	=23	=23	=23	=23	=23	=23	=23	=23	=23	=23	=23	=23	=23	=23	=23	=23	=23	=23	=23	=23	=23	=23	=23	=23
*	*	*	*	*	*tremolo	*	*	*	*	*	*	*	*	*	*	*	*	*	*	*	*	*	*	*
4C\	6	.	4c\	.	8a/L 8e/	.	4a\	.	4c\	-sto-	.	2.e\	-sto-	.	4a\	-sto-	.	.	.	.	4cc\	.	4ee\	.
.	.	.	.	.	8a/ 8e/	.	.	.	.	.	.	.	.	.	.	.	.	.	.	.	.	.	.	.
4C\	_	.	4c\	.	8a/ 8e/	.	4.ee\	.	2C/	.	.	.	.	.	4.ee\	.	.	.	.	.	4r	.	4r	.
.	.	.	.	.	8a/J 8e/	.	.	.	.	.	.	.	.	.	.	.	.	.	.	.	.	.	.	.
4C\	x	.	4c\	.	8a/L 8e/	.	.	.	.	.	.	.	.	.	.	.	.	.	.	.	2r	.	2r	.
.	.	.	.	.	8a/ 8e/	.	16dd\LL	.	.	.	.	.	.	.	16dd\LL	.	.	.	.	.	.	.	.	.
.	.	.	.	.	.	.	16cc\JJ	.	.	.	.	.	.	.	16cc\JJ	.	.	.	.	.	.	.	.	.
!	!	!	!	!	!	!	!LO:TUP:a:problem:klamra łukowa	!	!	!	!	!	!	!	!	!	!	!	!	!	!	!	!	!
4r	.	.	4r	.	8a/ 8e/	.	12b\L	.	4C/	-le	.	4e\	-le	.	12b\L	.	.	.	.	.	.	.	.	.
.	.	.	.	.	.	.	12cc\	.	.	.	.	.	.	.	12cc;\	.	.	.	.	.	.	.	.	.
.	.	.	.	.	8a/ 8e/J	.	.	.	.	.	.	.	.	.	.	.	.	.	.	.	.	.	.	.
.	.	.	.	.	.	.	12a\J	.	.	.	.	.	.	.	12a\J	-le	.	.	.	.	.	.	.	.
*	*	*	*	*	*Xtremolo	*	*	*	*	*	*	*	*	*	*	*	*	*	*	*	*	*	*	*
!LO:LB:g=original	!	!	!	!	!	!	!	!	!	!	!	!	!	!	!	!	!	!	!	!	!	!	!	!
=24	=24	=24	=24	=24	=24	=24	=24	=24	=24	=24	=24	=24	=24	=24	=24	=24	=24	=24	=24	=24	=24	=24	=24	=24
!	!	!	!	!	!	!	!	!	!	!	!	!	!	!	!	!	!	!LO:DY:rj	!	!LO:DY:rj:b	!	!	!	!
4D\	6	.	4d\	.	4r	.	4r	.	4D\	sto-	.	2d\	sto-	.	4.g\	sto-	4c/	p	4g\	p	4.b\	.	4.gg\	.
4r	.	.	4r	.	4g/	.	4b\	.	4r	.	.	.	.	.	.	.	4r	.	4r	.	.	.	.	.
.	.	.	.	.	.	.	.	.	.	.	.	.	.	.	8g\	.	.	.	.	.	8dd\	.	8gg\	.
!	!	!	!	!	!	!	!	!	!	!	!	!	!	!	!	!	!	!	!	!	!LO:LB:g=original	!	!	!
4D\	#	.	4d\	.	4r	.	4r	.	4D\	-le	.	4f#\	-le	.	4a\	-le	4d/	.	4a\	.	4ff#\	.	4aa\	.
4r	.	.	4r	.	4a/	.	4cc\	.	4D\	bo-	.	8f#\L	bo-	.	8dd\L	bo-	4r	.	4r	.	8ff#\L	.	8ddd\L	.
.	.	.	.	.	.	.	.	.	.	.	.	8a\J	.	.	8cc\J	.	.	.	.	.	8aa\J	.	8ccc\J	.
!	!	!	!	!	!	!	!	!	!	!	!	!	!	!	!LO:LB:g=original	!	!	!	!	!	!	!	!LO:LB:g=original	!
=25	=25	=25	=25	=25	=25	=25	=25	=25	=25	=25	=25	=25	=25	=25	=25	=25	=25	=25	=25	=25	=25	=25	=25	=25
4D\	.	.	8d\L	.	16ff#\LL	.	16aa\LL	.	(4D\	-ga-	.	(4.a\	-ga-	.	4.cc\	-ga-	4d/	.	4a\	.	4.aa\	.	4.ccc\	.
.	.	.	.	.	16ee\	.	16gg\	.	.	.	.	.	.	.	.	.	.	.	.	.	.	.	.	.
.	.	.	8d\	.	16dd\	.	16ff#\	.	.	.	.	.	.	.	.	.	.	.	.	.	.	.	.	.
.	.	.	.	.	16cc\JJ	.	16ee\JJ	.	.	.	.	.	.	.	.	.	.	.	.	.	.	.	.	.
4D#X\	.	.	8d#X\	.	16b\LL	.	16dd\LL	.	4D#X\)	.	.	.	.	.	.	.	4r	.	4r	.	.	.	.	.
.	.	.	.	.	16a\	.	16cc\	.	.	.	.	.	.	.	.	.	.	.	.	.	.	.	.	.
.	.	.	8d#\J	.	16g\	.	16b\	.	.	.	.	8g\)	.	.	8b\	.	.	.	.	.	8gg\	.	8bb\	.
.	.	.	.	.	16f#\JJ	.	16a\JJ	.	.	.	.	.	.	.	.	.	.	.	.	.	.	.	.	.
!	!	!	!LO:LB:g=original	!	!	!	!	!	!	!	!	!LO:LB:g=original	!	!	!	!	!	!	!LO:LB:g=original	!	!	!	!	!
4E\	.	.	4e\	.	4g/	.	8b\L	.	4E\	-tym	.	4g\	-tym	.	4b\	-tym	4B/	.	4a\	.	4gg\	.	4bb\	.
!	!	!	!	!	!	!	!LO:TX:a:t=x	!	!	!	!	!	!	!	!	!	!	!	!	!	!	!	!	!
.	.	.	.	.	.	.	8ee\	.	.	.	.	.	.	.	.	.	.	.	.	.	.	.	.	.
4r	.	.	4r	.	4e/	.	8gg\	.	4r	.	.	4r	.	.	4r	.	4r	.	4r	.	4r	.	4r	.
!LO:TX:i:b:t=ped	!	!	!	!	!	!LO:DY:b	!	!	!	!	!	!	!	!	!	!	!	!	!	!	!	!	!	!
.	.	.	.	.	.	p	8ee\J	.	.	.	.	.	.	.	.	.	.	.	.	.	.	.	.	.
!	!	!	!	!	!	!	!	!	!	!	!	!	!	!	!	!	!LO:LB:g=original	!	!	!	!	!	!	!
=26	=26	=26	=26	=26	=26	=26	=26	=26	=26	=26	=26	=26	=26	=26	=26	=26	=26	=26	=26	=26	=26	=26	=26	=26
!	!	!	!	!LO:DY:rj:	!	!	!	!LO:DY:rj	!LO:TX:a:t=6.	!	!	!LO:TX:a:t=6.	!	!	!LO:TX:a:t=6.	!	!	!	!	!	!LO:TX:rj:a:i:t=Soli	!	!LO:TX:rj:a:i:t=Soli	!
4D\	.	.	4f#\	p	4a\ 4d\	.	4dd\	p	00r	.	.	00r	.	.	00r	.	4d/	.	4a\	.	4aa\	.	4ccc\	.
4r	.	.	4f#\	.	4a\	.	4cc\ 4d\	.	.	.	.	.	.	.	.	.	4r	.	4r	.	4ff#\	.	4aa\	.
4D\	.	.	4f#\	.	4a\	.	4cc\ 4d\	.	.	.	.	.	.	.	.	.	4d/	.	4a\	.	8r	.	8r	.
.	.	.	.	.	.	.	.	.	.	.	.	.	.	.	.	.	.	.	.	.	16ff#\LL	.	16aa\LL	.
.	.	.	.	.	.	.	.	.	.	.	.	.	.	.	.	.	.	.	.	.	16gg\JJ	.	16bb\JJ	.
4r	.	.	4f#\	.	4a\	.	4cc\ 4d\	.	.	.	.	.	.	.	.	.	4r	.	4r	.	8aa\L	.	8ccc\L	.
.	.	.	.	.	.	.	.	.	.	.	.	.	.	.	.	.	.	.	.	.	8ff#\J	.	8aa\J	.
!	!	!	!	!	!	!	!LO:LB:g=original	!	!	!	!	!	!	!	!	!	!	!	!	!	!	!	!	!
=27	=27	=27	=27	=27	=27	=27	=27	=27	=27	=27	=27	=27	=27	=27	=27	=27	=27	=27	=27	=27	=27	=27	=27	=27
4GG/	.	.	4d\	.	4g/	.	4b\ 4d\	.	.	.	.	.	.	.	.	.	2r	.	2r	.	4bb\	.	4ddd\	.
4r	.	.	4r	.	4g/	.	4b\ 4d\	.	.	.	.	.	.	.	.	.	.	.	.	.	4gg\	.	4bb\	.
4GG/	.	.	4d\	.	4g/	.	4b\ 4d\	.	.	.	.	.	.	.	.	.	4B/	.	4g\	.	8r	.	8r	.
.	.	.	.	.	.	.	.	.	.	.	.	.	.	.	.	.	.	.	.	.	16gg\LL	.	16bb\LL	.
.	.	.	.	.	.	.	.	.	.	.	.	.	.	.	.	.	.	.	.	.	16aa\JJ	.	16ccc\JJ	.
4r	.	.	4r	.	4g/	.	4b\ 4d\	.	.	.	.	.	.	.	.	.	4r	.	4r	.	8bb\L	.	8ddd\L	.
.	.	.	.	.	.	.	.	.	.	.	.	.	.	.	.	.	.	.	.	.	8gg\J	.	8bb\J	.
!	!	!	!	!	!LO:LB:g=original	!	!	!	!	!	!	!	!	!	!	!	!	!	!	!	!LO:LB:g=original	!	!	!
=28	=28	=28	=28	=28	=28	=28	=28	=28	=28	=28	=28	=28	=28	=28	=28	=28	=28	=28	=28	=28	=28	=28	=28	=28
4D\	.	.	4f#\	.	4a/	.	4cc\ 4d\	.	.	.	.	.	.	.	.	.	4d/	.	4a\	.	4aa\	.	4ccc\	.
4r	.	.	4f#\	.	4a/	.	4cc\ 4d\	.	.	.	.	.	.	.	.	.	4r	.	4r	.	4ff#\	.	4aa\	.
4D\	.	.	4f#\	.	4a/	.	4cc\ 4d\	.	.	.	.	.	.	.	.	.	4d/	.	4a\	.	8r	.	8r	.
.	.	.	.	.	.	.	.	.	.	.	.	.	.	.	.	.	.	.	.	.	16ff#\LL	.	16aa\LL	.
.	.	.	.	.	.	.	.	.	.	.	.	.	.	.	.	.	.	.	.	.	16gg\JJ	.	16bb\JJ	.
4r	.	.	4f#\	.	4a/	.	4cc\ 4d\	.	.	.	.	.	.	.	.	.	4r	.	4r	.	8aa\L	.	8ccc\L	.
.	.	.	.	.	.	.	.	.	.	.	.	.	.	.	.	.	.	.	.	.	8ff#\J	.	8aa\J	.
=29	=29	=29	=29	=29	=29	=29	=29	=29	=29	=29	=29	=29	=29	=29	=29	=29	=29	=29	=29	=29	=29	=29	=29	=29
4GG/	.	.	4d\	.	4g/	.	4b\ 4d\	.	.	.	.	.	.	.	.	.	2r	.	2r	.	4bb\	.	4ddd\	.
4r	.	.	4r	.	4g/	.	4b\ 4d\	.	.	.	.	.	.	.	.	.	.	.	.	.	4gg\	.	4bb\	.
!	!	!	!	!	!	!	!	!	!	!	!	!	!	!	!	!	!	!	!	!	!	!	!LO:LB:g=original	!
4GG/	.	.	4d\	.	4g/	.	4b\ 4d\	.	.	.	.	.	.	.	.	.	4B/	.	4g\	.	8r	.	8r	.
.	.	.	.	.	.	.	.	.	.	.	.	.	.	.	.	.	.	.	.	.	16gg\LL	.	16bb\LL	.
.	.	.	.	.	.	.	.	.	.	.	.	.	.	.	.	.	.	.	.	.	16aa\JJ	.	16ccc\JJ	.
4r	.	.	4r	.	4g/	.	4b\ 4d\	.	.	.	.	.	.	.	.	.	4r	.	4r	.	8bb\L	.	8ddd\L	.
.	.	.	.	.	.	.	.	.	.	.	.	.	.	.	.	.	.	.	.	.	8gg\J	.	8bb\J	.
!LO:LB:g=original	!	!	!	!	!	!	!	!	!	!	!	!	!	!	!	!	!	!	!	!	!	!	!	!
=30	=30	=30	=30	=30	=30	=30	=30	=30	=30	=30	=30	=30	=30	=30	=30	=30	=30	=30	=30	=30	=30	=30	=30	=30
4C\	6	.	4c\	.	4a/ 4e/	.	8ee\L	.	0r	.	.	0r	.	.	0r	.	2r	.	2r	.	4cc\	.	4aa\	.
.	.	.	.	.	.	.	16ff#\L	.	.	.	.	.	.	.	.	.	.	.	.	.	.	.	.	.
.	.	.	.	.	.	.	16gg#X\JJ	.	.	.	.	.	.	.	.	.	.	.	.	.	.	.	.	.
4r	.	.	4r	.	4r	.	16aa\LL	.	.	.	.	.	.	.	.	.	.	.	.	.	4r	.	4r	.
.	.	.	.	.	.	.	16bb\J	.	.	.	.	.	.	.	.	.	.	.	.	.	.	.	.	.
.	.	.	.	.	.	.	8ccc\J	.	.	.	.	.	.	.	.	.	.	.	.	.	.	.	.	.
4D\	6	.	4d\	.	4b\ 4g\	.	8dd\L	.	.	.	.	.	.	.	.	.	4B/	.	4g\	.	4b\	.	4gg\	.
.	.	.	.	.	.	.	16ee\L	.	.	.	.	.	.	.	.	.	.	.	.	.	.	.	.	.
.	.	.	.	.	.	.	16ff#\JJ	.	.	.	.	.	.	.	.	.	.	.	.	.	.	.	.	.
4r	.	.	4r	.	4r	.	16gg#\LL	.	.	.	.	.	.	.	.	.	4r	.	4r	.	4r	.	4r	.
.	.	.	.	.	.	.	16aa\J	.	.	.	.	.	.	.	.	.	.	.	.	.	.	.	.	.
.	.	.	.	.	.	.	8bb\J	.	.	.	.	.	.	.	.	.	.	.	.	.	.	.	.	.
!	!	!	!LO:LB:g=original	!	!	!	!	!	!	!	!	!	!	!	!	!	!	!	!	!	!	!	!	!
=31	=31	=31	=31	=31	=31	=31	=31	=31	=31	=31	=31	=31	=31	=31	=31	=31	=31	=31	=31	=31	=31	=31	=31	=31
4D\	7	.	4d\	.	4a/ 4f#/	.	8cc\L	.	.	.	.	.	.	.	.	.	4d/	.	4a\	.	4cc\	.	4ff#\	.
.	.	.	.	.	.	.	16dd\L	.	.	.	.	.	.	.	.	.	.	.	.	.	.	.	.	.
.	.	.	.	.	.	.	16ee\JJ	.	.	.	.	.	.	.	.	.	.	.	.	.	.	.	.	.
4r	.	.	4r	.	4r	.	16ff#\LL	.	.	.	.	.	.	.	.	.	4r	.	4r	.	4r	.	4r	.
.	.	.	.	.	.	.	16gg\	.	.	.	.	.	.	.	.	.	.	.	.	.	.	.	.	.
.	.	.	.	.	.	.	16aa\	.	.	.	.	.	.	.	.	.	.	.	.	.	.	.	.	.
.	.	.	.	.	.	.	16ff#\JJ	.	.	.	.	.	.	.	.	.	.	.	.	.	.	.	.	.
!	!	!	!	!	!	!	!LO:LB:g=original	!	!	!	!	!	!	!	!	!	!	!	!	!	!	!	!	!
4GG/	.	.	4g\	.	8b\L	.	8gg\L	.	.	.	.	.	.	.	.	.	4B/	.	4g\	.	8b\L|	.	8gg\L	.
.	.	.	.	.	8b\	.	8dd\	.	.	.	.	.	.	.	.	.	.	.	.	.	8b\	.	8dd\	.
4GG/	.	.	4r	.	(8a#X\	.	(8cc#X\	.	.	.	.	.	.	.	.	.	4r	.	4r	.	(8a#X\	.	(8cc#X\	.
.	.	.	.	.	8b\J)	.	8dd\J)	.	.	.	.	.	.	.	.	.	.	.	.	.	8b\J)	.	8dd\J)	.
!	!	!	!	!	!	!	!	!	!LO:LB:g=original	!	!	!	!	!	!	!	!	!	!	!	!LO:LB:g=original	!	!	!
=32	=32	=32	=32	=32	=32	=32	=32	=32	=32	=32	=32	=32	=32	=32	=32	=32	=32	=32	=32	=32	=32	=32	=32	=32
4BB/	6	.	4B/	.	4b\	.	4gg\	.	2D\	na	.	2b\	na	.	(4gg\	na	4G/	.	4g\	.	2b\	.	(4gg\	.
4BB/	_	.	4B/	.	4b\	.	4dd\	.	.	.	.	.	.	.	4dd\)	.	4r	.	4r	.	.	.	4dd\)	.
4r	.	.	4r	.	4r	.	4r	.	2D\	tym	.	(4b\	tym	.	(4dd\	-tym	2r	.	2r	.	4b\	.	4dd\	.
4BB/	6	.	4B/	.	4g/	.	4cc\	.	.	.	.	4g\)	.	.	4b\)	.	.	.	.	.	4g/	.	4b\	.
=33	=33	=33	=33	=33	=33	=33	=33	=33	=33	=33	=33	=33	=33	=33	=33	=33	=33	=33	=33	=33	=33	=33	=33	=33
!	!	!	!	!	!	!	!	!	!	!	!	!	!	!	!	!	!LO:TX:a:t=1.	!	!LO:TX:a:t=1.	!	!	!	!	!
4C/	6	.	4c\	.	4e/	.	4a\	.	4C/	sto-	.	4e\	-sto-	.	4a\	-sto-	1r	.	1r	.	4r	.	4r	.
*2\right	*	*	*	*	*	*	*	*	*	*	*	*	*	*	*	*	*	*	*	*	*	*	*	*
!	!	!LO:DY:b:	!	!LO:DY:b	!	!LO:DY:b	!	!LO:DY:b	!	!	!LO:DY:b:	!	!	!LO:DY:b:	!	!	!	!	!	!	!	!	!	!
.	.	f	.	f	.	ff	.	f	.	.	f	.	.	f	.	.	.	.	.	.	.	f	.	f
2D\	6 4# 3	.	2g#X\ 2B^\	.	2b\ 2g#X\	.	4.ffn\ 4.dd\	.	2D\	.	.	2g#X\	.	.	4.ffn\	.	.	.	.	.	2gg#X\	.	2ddd\	.
*	*	*	*	*	*	*	*Xtuplet	*	*	*	*	*	*	*	*Xtuplet	*	*	*	*	*	*	*	*	*
.	.	.	.	.	.	.	24ee\LL	.	.	.	.	.	.	.	24ee\LL	.	.	.	.	.	.	.	.	.
.	.	.	.	.	.	.	24dd\	.	.	.	.	.	.	.	24dd\	.	.	.	.	.	.	.	.	.
.	.	.	.	.	.	.	24cc\JJ	.	.	.	.	.	.	.	24cc\JJ	.	.	.	.	.	.	.	.	.
!	!	!LO:DY:b	!	!	!	!	!	!LO:DY:b	!	!	!	!	!	!	!	!	!	!	!	!	!	!	!	!
.	.	p	.	.	.	.	.	p	.	.	.	.	.	.	.	.	.	.	.	.	.	.	.	.
*	*	*	*	*	*	*	*tuplet	*	*	*	*	*	*	*	*tuplet	*	*	*	*	*	*	*	*	*
!	!	!	!	!	!	!LO:DY:b	!LO:TUP:a:problem:klamra łukowa	!	!	!	!	!	!	!	!LO:TUP:a:problem:klamra łukowa	!	!	!	!	!	!	!	!	!
.	.	.	.	.	.	p	.	.	.	.	.	.	.	.	.	.	.	.	.	.	.	.	.	.
!	!	!	!	!	!	!	!	!	!	!	!	!	!	!	!	!	!	!	!	!	!	!	!LO:TUP:a:problem:klamra łukowa	!
4C\	.	.	4c\	.	4a/ 4e/	.	12b\L	.	4C/	-le	.	4e\	-le	.	12b\L	-le	.	.	.	.	4r	.	12bb\L	.
.	.	.	.	.	.	.	12cc\	.	.	.	.	.	.	.	12cc\	.	.	.	.	.	.	.	12ccc\	.
.	.	.	.	.	.	.	12a\J	.	.	.	.	.	.	.	12a\J	.	.	.	.	.	.	.	12aa\J	.
!	!	!	!	!	!LO:LB:g=original	!	!	!	!	!	!	!	!	!	!LO:LB:g=original	!	!	!	!	!	!	!	!	!
=34	=34	=34	=34	=34	=34	=34	=34	=34	=34	=34	=34	=34	=34	=34	=34	=34	=34	=34	=34	=34	=34	=34	=34	=34
*	*	*	*tremolo	*	*	*	*	*	*	*	*	*	*	*	*	*	*	*	*	*	*	*	*	*
!LO:TX:a:i:t=solo	!	!	!	!	!	!	!	!	!	!	!	!	!	!	!	!	!	!	!	!	!	!	!	!
4D\	.	.	8d'\L	.	8B/L	.	8g\L	.	(4BB/	sto-	.	4.d\	sto-	.	4.g\	-sto-	4B/	.	4g\	.	4.b\	.	4.gg\	.
.	.	.	8d'\	.	8g/	.	8b\	.	.	.	.	.	.	.	.	.	.	.	.	.	.	.	.	.
4r	.	.	8d'\	.	8b/	.	8dd\	.	4B\)	.	.	.	.	.	.	.	4r	.	4r	.	.	.	.	.
.	.	.	8d'\J	.	8g/J	.	8gg\J	.	.	.	.	8d\	.	.	8g\	.	.	.	.	.	8b\	.	8gg\	.
*	*	*	*Xtremolo	*	*	*	*	*	*	*	*	*	*	*	*	*	*	*	*	*	*	*	*	*
!	!	!	!	!	!	!	!	!	!	!	!	!LO:LB:g=original	!	!	!	!	!	!	!	!	!	!	!LO:LB:g=original	!
4D\	7	.	4r	.	4r	.	4r	.	4d\	-le	.	4d\	-le	.	4.b\	-le	4r	.	4r	.	4.dd\	.	4.bb\	.
4r	.	.	4d\	.	4a/ 4f#/	.	4cc\ 4d\	.	4D/	bo-	.	4c\	bo-	.	.	.	4d/	.	4a\	.	.	.	.	.
.	_	.	.	.	.	.	.	.	.	.	.	.	.	.	8a\	bo-	.	.	.	.	8dd\	.	8aa\	.
!	!	!	!	!	!	!	!	!	!	!	!	!	!	!	!	!	!LO:LB:g=original	!	!LO:LB:g=original	!	!	!	!	!
=35	=35	=35	=35	=35	=35	=35	=35	=35	=35	=35	=35	=35	=35	=35	=35	=35	=35	=35	=35	=35	=35	=35	=35	=35
4G\	.	.	4d\	.	8f#\L	.	8a\L	.	(4G\	-ga-	.	2c\	-ga-	.	2a\	-ga-	4d/	.	4a\	.	2cc\	.	2aa\	.
.	.	.	.	.	8b\	.	8dd\	.	.	.	.	.	.	.	.	.	.	.	.	.	.	.	.	.
4D\	x	.	4d\	.	8cc\	.	8ee\	.	4D\)	.	.	.	.	.	.	.	4r	.	4r	.	.	.	.	.
.	.	.	.	.	8a\J	.	8ff#\J	.	.	.	.	.	.	.	.	.	.	.	.	.	.	.	.	.
!	!	!	!	!	!LO:TX:t=P:problem:mixed beam	!	!	!	!	!	!	!	!	!	!	!	!	!	!LO:TX:t=P:problem:mixed beam	!	!	!	!	!
4GG/	n	.	8d\L	.	8b\L	.	4gg\	.	4G\	-tym.	.	4B\	-tym	.	4g\	-tym.	8B'/L	.	8g\L	.	4b\	.	4gg\	.
.	.	.	8d\	.	8d'/	.	.	.	.	.	.	.	.	.	.	.	8d'/	.	8d'/	.	.	.	.	.
4r	.	.	8d\	.	8d'/	.	4r	.	4r	.	.	4r	.	.	4r	.	8d'/	.	8d'/	.	4r	.	4r	.
.	.	.	8d\J	.	8d'/J	.	.	.	.	.	.	.	.	.	.	.	8d'/J	.	8d'/J	.	.	.	.	.
!LO:LB:g=original	!	!	!LO:LB:g=original	!	!	!	!LO:LB:g=original	!	!	!	!	!	!	!	!	!	!	!	!	!	!	!	!	!
=36	=36	=36	=36	=36	=36	=36	=36	=36	=36	=36	=36	=36	=36	=36	=36	=36	=36	=36	=36	=36	=36	=36	=36	=36
*	*	*	*tremolo	*	*tremolo	*	*	*	*	*	*	*	*	*	*	*	*	*	*	*	*	*	*	*
!	!	!	!	!LO:DY:rj:b	!	!LO:DY:a	!	!LO:DY:rj:b	!LO:TX:a:t=11.	!	!	!LO:TX:a:t=11.	!	!	!LO:TX:a:t=11.	!	!LO:TX:a:t=1.	!	!LO:TX:a:t=1.	!	!LO:TX:a:t=1.	!	!LO:TX:a:t=1.	!
4D\	.	.	8a\L	p	8cc\L	p	4ccc\	p	00r	.	.	00r	.	.	00r	.	1r	.	1r	.	1r	.	1r	.
.	.	.	8a\	.	8cc\	.	.	.	.	.	.	.	.	.	.	.	.	.	.	.	.	.	.	.
4r	.	.	8a\	.	8cc\	.	8r	.	.	.	.	.	.	.	.	.	.	.	.	.	.	.	.	.
.	.	.	8a\J	.	8cc\J	.	8dd\	.	.	.	.	.	.	.	.	.	.	.	.	.	.	.	.	.
4D\	.	.	8f#\L	.	8a\L	.	16ff#\LL	.	.	.	.	.	.	.	.	.	.	.	.	.	.	.	.	.
.	.	.	.	.	.	.	16gg\	.	.	.	.	.	.	.	.	.	.	.	.	.	.	.	.	.
.	.	.	8f#\	.	8a/	.	16aa\	.	.	.	.	.	.	.	.	.	.	.	.	.	.	.	.	.
.	.	.	.	.	.	.	16gg\JJ	.	.	.	.	.	.	.	.	.	.	.	.	.	.	.	.	.
4r	.	.	8f#\	.	8a/	.	8ff#\L	.	.	.	.	.	.	.	.	.	.	.	.	.	.	.	.	.
.	.	.	8f#\J	.	8a/J	.	8dd\J	.	.	.	.	.	.	.	.	.	.	.	.	.	.	.	.	.
*	*	*	*Xtremolo	*	*	*	*	*	*	*	*	*	*	*	*	*	*	*	*	*	*	*	*	*
!	!	!	!	!	!	!	!	!	!	!	!	!	!	!	!	!	!	!	!	!	!LO:LB:g=original	!	!	!
=37	=37	=37	=37	=37	=37	=37	=37	=37	=37	=37	=37	=37	=37	=37	=37	=37	=37	=37	=37	=37	=37	=37	=37	=37
4G\	.	.	4g\	.	4b\	.	8gg\L	.	.	.	.	.	.	.	.	.	4B/	.	4g\	.	4b\	.	4gg\	.
.	.	.	.	.	.	.	8qqccc/	.	.	.	.	.	.	.	.	.	.	.	.	.	.	.	.	.
.	.	.	.	.	.	.	8ddd\	.	.	.	.	.	.	.	.	.	.	.	.	.	.	.	.	.
4r	.	.	4r	.	4r	.	8ddd\	.	.	.	.	.	.	.	.	.	4r	.	4r	.	4r	.	4r	.
.	.	.	.	.	.	.	8ddd\J	.	.	.	.	.	.	.	.	.	.	.	.	.	.	.	.	.
4F#\	6 3	.	4a\	.	4cc\	.	8aa\L	.	.	.	.	.	.	.	.	.	4d/	.	4a\	.	4ff#\	.	4aa\	.
.	.	.	.	.	.	.	8qqccc/	.	.	.	.	.	.	.	.	.	.	.	.	.	.	.	.	.
.	.	.	.	.	.	.	8ddd\	.	.	.	.	.	.	.	.	.	.	.	.	.	.	.	.	.
4r	.	.	4r	.	4r	.	8ddd\	.	.	.	.	.	.	.	.	.	4r	.	4r	.	4r	.	4r	.
.	.	.	.	.	.	.	8ddd\J	.	.	.	.	.	.	.	.	.	.	.	.	.	.	.	.	.
=38	=38	=38	=38	=38	=38	=38	=38	=38	=38	=38	=38	=38	=38	=38	=38	=38	=38	=38	=38	=38	=38	=38	=38	=38
!	!	!	!	!	!LO:TX:b:i:t=dolce	!	!	!	!	!	!	!	!	!	!	!	!	!	!	!	!	!	!	!
4G\	.	.	4d\	.	8gg\L	.	8bb\L|	.	.	.	.	.	.	.	.	.	4G/	.	4g\	.	4b\	.	4gg\	.
.	.	.	.	.	8bb\|	.	8ddd\	.	.	.	.	.	.	.	.	.	.	.	.	.	.	.	.	.
4r	.	.	4r	.	(8aa#X\	.	(8ccc#X\	.	.	.	.	.	.	.	.	.	4r	.	4r	.	4r	.	4r	.
.	.	.	.	.	8bb\J)	.	8ddd\J)	.	.	.	.	.	.	.	.	.	.	.	.	.	.	.	.	.
4GG/	.	.	4d\	.	8gg\L|	.	8bb\L|	.	.	.	.	.	.	.	.	.	4G/	.	4g\	.	4b\	.	4gg\	.
.	.	.	.	.	8dd\	.	8ddd\	.	.	.	.	.	.	.	.	.	.	.	.	.	.	.	.	.
4r	.	.	4r	.	(8cc#X\	.	(8ccc#\	.	.	.	.	.	.	.	.	.	4r	.	4r	.	4r	.	4r	.
.	.	.	.	.	8dd\J)	.	8ddd\J)	.	.	.	.	.	.	.	.	.	.	.	.	.	.	.	.	.
=39	=39	=39	=39	=39	=39	=39	=39	=39	=39	=39	=39	=39	=39	=39	=39	=39	=39	=39	=39	=39	=39	=39	=39	=39
!	!	!	!	!	!	!	!	!	!	!	!	!	!	!	!	!	!	!	!	!	!LO:TX:b:i:t=dolce	!	!LO:TX:b:i:t=dolce	!
4GG/	.	.	4d\	.	8b\L|	.	8gg\L|	.	.	.	.	.	.	.	.	.	4G/	.	4g\	.	8bb\L|	.	8ddd\L|	.
.	.	.	.	.	8b\	.	8dd\	.	.	.	.	.	.	.	.	.	.	.	.	.	8bb\	.	8ddd\	.
4r	.	.	4r	.	(8a#X\	.	(8cc#X\	.	.	.	.	.	.	.	.	.	4r	.	4r	.	(8aa#X\	.	(8ccc#X\	.
.	.	.	.	.	8b\J)	.	8dd\J)	.	.	.	.	.	.	.	.	.	.	.	.	.	8bb\J)	.	8ddd\J)	.
!	!	!	!	!	!LO:LB:g=original	!	!	!	!	!	!	!	!	!	!	!	!	!	!	!	!	!	!	!
4GG/	.	.	4d\	.	8g/L|	.	8b\L	.	.	.	.	.	.	.	.	.	4G/	.	4g\	.	8gg\L|	.	8bb\L|	.
.	.	.	.	.	8d/	.	8b\	.	.	.	.	.	.	.	.	.	.	.	.	.	8dd\	.	8bb\	.
4r	.	.	4r	.	(8c#X/	.	8a#X\	.	.	.	.	.	.	.	.	.	4r	.	4r	.	(8cc#X\	.	(8aa#X\	.
.	.	.	.	.	8d/J)	.	8b\J	.	.	.	.	.	.	.	.	.	.	.	.	.	8dd\J)	.	8bb\J)	.
=40	=40	=40	=40	=40	=40	=40	=40	=40	=40	=40	=40	=40	=40	=40	=40	=40	=40	=40	=40	=40	=40	=40	=40	=40
!	!	!LO:DY:b:rj:	!	!LO:DY:rj:b	!	!LO:DY:rj:b	!	!LO:DY:a	!	!	!	!	!	!	!	!	!	!LO:DY:rj	!	!LO:DY:rj:b	!	!	!	!
4GG/	.	f	4d\ 4B\	f	4b\ 4d\	f	16g\LL	f	00r	.	.	00r	.	.	00r	.	4B/	f	4g\	f	4b\	.	4gg\	.
.	.	.	.	.	.	.	16a\	.	.	.	.	.	.	.	.	.	.	.	.	.	.	.	.	.
.	.	.	.	.	.	.	16b\	.	.	.	.	.	.	.	.	.	.	.	.	.	.	.	.	.
.	.	.	.	.	.	.	16cc\JJ	.	.	.	.	.	.	.	.	.	.	.	.	.	.	.	.	.
!	!	!	!	!	!	!	!LO:LB:g=original	!	!	!	!	!	!	!	!	!	!	!	!	!	!	!	!	!
4G\	.	.	4d\ 4B\	.	4b\ 4d\	.	16dd\LL	.	.	.	.	.	.	.	.	.	4B/	.	4g\	.	4b\	.	4gg\	.
.	.	.	.	.	.	.	16ee\	.	.	.	.	.	.	.	.	.	.	.	.	.	.	.	.	.
.	.	.	.	.	.	.	16ff#\	.	.	.	.	.	.	.	.	.	.	.	.	.	.	.	.	.
.	.	.	.	.	.	.	16gg\JJ	.	.	.	.	.	.	.	.	.	.	.	.	.	.	.	.	.
!	!	!LO:DY:b	!	!	!	!	!	!LO:DY:b	!	!	!	!	!	!	!	!	!	!	!	!	!	!	!	!
.	.	.	.	.	.	.	.	p	.	.	.	.	.	.	.	.	.	.	.	.	.	.	.	.
!	!	!	!	!LO:DY:b	!	!LO:DY:b	!	!	!	!	!	!	!	!	!	!	!	!	!	!	!	!	!	!
.	.	.	.	p	.	p	.	.	.	.	.	.	.	.	.	.	.	p	.	p	.	.	.	.
4D\	.	p	4f#\	.	4a\	.	4cc\ 4d\	.	.	.	.	.	.	.	.	.	4d/	.	4a\	.	8ff#\L	.	8aa\L	.
.	.	.	.	.	.	.	.	.	.	.	.	.	.	.	.	.	.	.	.	.	8gg\	.	8bb\	.
4D\	.	.	4f#\	.	4a\	.	4cc\ 4d\	.	.	.	.	.	.	.	.	.	4d/	.	4a\	.	8aa\	.	8ccc\	.
!	!	!LO:DY:b:	!	!	!	!	!	!	!	!	!	!	!	!	!	!	!	!	!	!	!	!	!	!
.	.	f	.	.	.	.	.	.	.	.	.	.	.	.	.	.	.	.	.	.	8ff#\J	.	8aa\J	.
!	!	!	!	!	!	!	!	!	!	!	!	!	!	!	!	!	!	!	!	!	!	!	!LO:LB:g=original	!
=41	=41	=41	=41	=41	=41	=41	=41	=41	=41	=41	=41	=41	=41	=41	=41	=41	=41	=41	=41	=41	=41	=41	=41	=41
!	!	!	!	!LO:DY:rj:b	!	!LO:DY:rj:b	!	!LO:DY:rj:b	!	!	!	!	!	!	!	!	!	!LO:DY:rj	!	!LO:DY:rj	!	!	!	!
4GG/	.	.	4d\ 4B\	f	4b\ 4d\	f	16g\LL	f	.	.	.	.	.	.	.	.	4B/	f	4g\	f	4b\	.	4gg\	.
.	.	.	.	.	.	.	16a\	.	.	.	.	.	.	.	.	.	.	.	.	.	.	.	.	.
.	.	.	.	.	.	.	16b\	.	.	.	.	.	.	.	.	.	.	.	.	.	.	.	.	.
.	.	.	.	.	.	.	16cc\JJ	.	.	.	.	.	.	.	.	.	.	.	.	.	.	.	.	.
4G\	.	.	4d\ 4B\	.	4b\ 4d\	.	16dd\LL	.	.	.	.	.	.	.	.	.	4B/	.	4g\	.	4b\	.	4gg\	.
.	.	.	.	.	.	.	16ee\	.	.	.	.	.	.	.	.	.	.	.	.	.	.	.	.	.
.	.	.	.	.	.	.	16ff#\	.	.	.	.	.	.	.	.	.	.	.	.	.	.	.	.	.
.	.	.	.	.	.	.	16gg\JJ	.	.	.	.	.	.	.	.	.	.	.	.	.	.	.	.	.
!	!	!LO:DY:b	!	!LO:DY:b	!	!LO:DY:b	!	!LO:DY:b	!	!	!	!	!	!	!	!	!	!	!	!	!	!	!	!
.	.	p	.	p	.	p	.	p	.	.	.	.	.	.	.	.	.	p	.	p	.	.	.	.
4D\	.	.	4f#\	.	4a\	.	4cc\ 4d\	.	.	.	.	.	.	.	.	.	4d/	.	4a\	.	8ff#\L	.	8aa\L	.
.	.	.	.	.	.	.	.	.	.	.	.	.	.	.	.	.	.	.	.	.	8gg\	.	8bb\	.
4D\	.	.	4f#\	.	4a\	.	4cc\ 4d\	.	.	.	.	.	.	.	.	.	4d/	.	4a\	.	8aa\	.	8ccc\	.
.	.	.	.	.	.	.	.	.	.	.	.	.	.	.	.	.	.	.	.	.	8ff#\J	.	8aa\J	.
!LO:LB:g=original	!	!	!LO:LB:g=original	!	!	!	!	!	!	!	!	!	!	!	!	!	!	!	!	!	!LO:LB:g=original	!	!	!
=42	=42	=42	=42	=42	=42	=42	=42	=42	=42	=42	=42	=42	=42	=42	=42	=42	=42	=42	=42	=42	=42	=42	=42	=42
!LO:TX:a:i:t=Tutti	!	!	!	!	!	!LO:DY:rj:b	!	!LO:DY:rj:b	!	!	!	!	!	!	!	!	!	!LO:DY:rj	!	!LO:DY:rj	!	!	!	!
16GG'\LL	.	f	16G/LL	.	16G/LL	ff	16g\LL	ff	.	.	.	.	.	.	.	.	4G/	f	4g\	f	4b\	.	4gg\	.
16AA'\	.	.	16A/	.	16A/	.	16a\	.	.	.	.	.	.	.	.	.	.	.	.	.	.	.	.	.
16BB'\	.	.	16B/	.	16B/	.	16b\	.	.	.	.	.	.	.	.	.	.	.	.	.	.	.	.	.
16C'\JJ	.	.	16c/JJ	.	16c/JJ	.	16cc\JJ	.	.	.	.	.	.	.	.	.	.	.	.	.	.	.	.	.
16D'\LL	.	.	16d\LL	.	16d/LL	.	16dd\LL	.	.	.	.	.	.	.	.	.	4G/	.	4g\	.	4b\	.	4gg\	.
16E'\	.	.	16e\	.	16e/	.	16ee\	.	.	.	.	.	.	.	.	.	.	.	.	.	.	.	.	.
16F#'\	.	.	16f#\	.	16f#/	.	16ff#\	.	.	.	.	.	.	.	.	.	.	.	.	.	.	.	.	.
16G'\JJ	.	.	16g\JJ	.	16g/JJ	.	16gg\JJ	.	.	.	.	.	.	.	.	.	.	.	.	.	.	.	.	.
!	!	!	!	!	!	!	!	!	!	!	!	!	!	!	!	!	!LO:LB;g=original	!	!	!	!	!	!	!
16A\LL	.	.	16a\LL	.	16a\LL	.	16aa\LL	.	.	.	.	.	.	.	.	.	4r	.	4r	.	4ff#\	.	4aa\	.
16B\	.	.	16b\	.	16b\	.	16bb\	.	.	.	.	.	.	.	.	.	.	.	.	.	.	.	.	.
16c\	.	.	16cc\	.	16cc\	.	16ccc\	.	.	.	.	.	.	.	.	.	.	.	.	.	.	.	.	.
16A\JJ	.	.	16a\JJ	.	16a\JJ	.	16aa\JJ	.	.	.	.	.	.	.	.	.	.	f	.	.	.	.	.	.
4D\	.	.	4d\	.	4cc\ 4d\	.	4ff#\ 4a\	.	.	.	.	.	.	.	.	.	4d/	.	4a\	.	4aa\	.	4ccc\	.
!	!	!	!	!	!	!	!	!	!	!	!	!	!	!	!	!	!	!	!LO:LB:g=original	!	!	!	!	!
=43	=43	=43	=43	=43	=43	=43	=43	=43	=43	=43	=43	=43	=43	=43	=43	=43	=43	=43	=43	=43	=43	=43	=43	=43
*	*	*	*tremolo	*	*	*	*	*	*	*	*	*	*	*	*	*	*	*	*	*	*	*	*	*
4GG/	.	.	8d'\L	.	4b\ 4d\	.	4gg\ 4b\ 4d\	.	.	.	.	.	.	.	.	.	4B/	.	4g\	.	4gg\	.	4bb\	.
.	.	.	8d'\	.	.	.	.	.	.	.	.	.	.	.	.	.	.	.	.	.	.	.	.	.
4r	.	.	8d'\	.	4r	.	4r	.	.	.	.	.	.	.	.	.	4r	.	4r	.	(8a#X\L	.	(8aa#X\L	.
.	.	.	8d'\J	.	.	.	.	.	.	.	.	.	.	.	.	.	.	.	.	.	8b\J)	.	8bb\J)	.
4D\	.	.	8d\L	.	4cc\ 4d\	.	4ff#\ 4a\ 4d\	.	.	.	.	.	.	.	.	.	4d/	.	4a\	.	4ff#\	.	4aa#\	.
.	.	.	8d\	.	.	.	.	.	.	.	.	.	.	.	.	.	.	.	.	.	.	.	.	.
4r	.	.	8d\	.	4r	.	4r	.	.	.	.	.	.	.	.	.	4r	.	4r	.	(8cc#X\L	.	(8ccc#X\L	.
.	.	.	8d\J	.	.	.	.	.	.	.	.	.	.	.	.	.	.	.	.	.	8dd\J)	.	8ddd\J)	.
!	!	!	!	!	!LO:LB:g=original	!	!	!	!	!	!	!	!	!	!	!	!	!	!	!	!	!	!	!
=44	=44	=44	=44	=44	=44	=44	=44	=44	=44	=44	=44	=44	=44	=44	=44	=44	=44	=44	=44	=44	=44	=44	=44	=44
4GG/	.	.	8d\L	.	4b\ 4d\	.	4gg/ 4b/ 4d/ 4G/	.	0r	.	.	0r	.	.	0r	.	4B/	.	4g\	.	4gg\	.	4bb\	.
.	.	.	8d\	.	.	.	.	.	.	.	.	.	.	.	.	.	.	.	.	.	.	.	.	.
4r	.	.	8d\	.	4r	.	4r	.	.	.	.	.	.	.	.	.	4r	.	4r	.	(8a#X\L	.	(8aa#X\L	.
.	.	.	8d\J	.	.	.	.	.	.	.	.	.	.	.	.	.	.	.	.	.	8b\J)	.	8bb\J)	.
!	!	!	!	!	!	!	!LO:LB:g=original	!	!	!	!	!	!	!	!	!	!	!	!	!	!	!	!	!
4D\	.	.	8d\L	.	4cc\ 4d\	.	4ff#\ 4a\ 4d\	.	.	.	.	.	.	.	.	.	4d/	.	4a\	.	4ff#\	.	4aa#\	.
.	.	.	8d\	.	.	.	.	.	.	.	.	.	.	.	.	.	.	.	.	.	.	.	.	.
4r	.	.	8d\	.	4r	.	4r	.	.	.	.	.	.	.	.	.	4r	.	4r	.	(8cc#X\L	.	(8ccc#X\L	.
.	.	.	8d\J	.	.	.	.	.	.	.	.	.	.	.	.	.	.	.	.	.	8dd\J)	.	8ddd\J)	.
=45	=45	=45	=45	=45	=45	=45	=45	=45	=45	=45	=45	=45	=45	=45	=45	=45	=45	=45	=45	=45	=45	=45	=45	=45
4GG/	5	.	8d\L	.	4b\ 4d\	.	4gg\ 4b\ 4d\	.	.	.	.	.	.	.	.	.	4B/	.	4g\	.	4gg\	.	4bb\	.
.	.	.	8d\	.	.	.	.	.	.	.	.	.	.	.	.	.	.	.	.	.	.	.	.	.
4D\	#	.	8d\	.	4cc\ 4d\	.	4ff#\ 4a\ 4d\	.	.	.	.	.	.	.	.	.	4d/	.	4a\	.	4ff#\	.	4aa\	.
.	.	.	8d\J	.	.	.	.	.	.	.	.	.	.	.	.	.	.	.	.	.	.	.	.	.
4G\	3	.	8d\L	.	4b\ 4d\	.	4gg\ 4b\ 4d\	.	.	.	.	.	.	.	.	.	4B/	.	4g\	.	4gg\	.	4bb\	.
.	.	.	8d\	.	.	.	.	.	.	.	.	.	.	.	.	.	.	.	.	.	.	.	.	.
4D\	#	.	8d\	.	4cc\ 4d\	.	4ff#\ 4a\ 4d\	.	.	.	.	.	.	.	.	.	4d/	.	4a\	.	4ff#\	.	4ddd\	.
.	.	.	8d\J	.	.	.	.	.	.	.	.	.	.	.	.	.	.	.	.	.	.	.	.	.
*	*	*	*Xtremolo	*	*	*	*	*	*	*	*	*	*	*	*	*	*	*	*	*	*	*	*	*
!	!	!	!	!	!	!	!	!	!	!	!	!	!	!	!	!	!	!	!	!	!	!	!LO:LB:g=original	!
=46	=46	=46	=46	=46	=46	=46	=46	=46	=46	=46	=46	=46	=46	=46	=46	=46	=46	=46	=46	=46	=46	=46	=46	=46
4GG/	5_ 3_	.	4d\ 4G\	.	4b\ 4d\	.	4gg\ 4b\ 4d\	.	1r	.	.	1r	.	.	1r	.	4B/	.	4g\	.	4gg\	.	4bb\	.
4GG/	.	.	4d\ 4G\	.	4b\ 4d\	.	4gg\ 4b\ 4d\	.	.	.	.	.	.	.	.	.	4B/	.	4g\	.	4b\	.	4gg\	.
4GG/	.	.	4d\ 4G\	.	4b\ 4d\	.	4gg\ 4b\ 4d\	.	.	.	.	.	.	.	.	.	4B/	.	4g\	.	4b\	.	4gg\	.
4r	x	.	4r	.	4r	.	4r	.	.	.	.	.	.	.	.	.	4r	.	4r	.	4r	.	4r	.
==	==	==	==	==	==	==	==	==	==	==	==	==	==	==	==	==	==	==	==	==	==	==	==	==
*-	*-	*-	*-	*-	*-	*-	*-	*-	*-	*-	*-	*-	*-	*-	*-	*-	*-	*-	*-	*-	*-	*-	*-	*-
!!!system-decoration: [(s1,s2)][(s3,s4)][(s5,s6,s7)][([(s8,s9)]s10)]s11
!!!RDF**dynam: p = przekreślone p
!!!RDF**dynam: f = fo
!!!RDF**dynam: ff = ffo
!!!EED: Leszek Kubiak
!!!EST: 2020-12-05
!!!ENC: Tomasz Grochalski
!!!END: 2020-04-15
!!!RDF**kern: | = vertical stroke
